X:1
T:Unfortunate Dog
M:2/4
L:1/16
K:A
FA | E2EA F2FA | E2AE FEDF | E2AA F2A2| ABdf edcA|!
E2EA F2FA | E2AE FEDF | E2AA F2A2| dfed cAA2:|]!
ce2f e2c2 | d2e2 fdfd | e2ef e2ef | =gfed cAA2|!
ce2f e2c2 | dAde fefg | abaf =gfec | dfed cAA2:|]
